src/components/00-materials/images-raw/Moped.svg

<svg width="96" height="96" viewBox="0 0 96 96" fill="none" xmlns="http://www.w3.org/2000/svg">
<path d="M22.41 44.55L22.16 44.48C20.9897 44.1625 19.7826 44.0011 18.57 44C16.0995 43.9948 13.6743 44.6631 11.5553 45.933C9.43617 47.203 7.70334 49.0265 6.54311 51.2076C5.38288 53.3887 4.83914 55.8448 4.97036 58.3118C5.10158 60.7788 5.9028 63.1634 7.28786 65.2091C8.67292 67.2548 10.5894 68.8843 12.8313 69.9223C15.0731 70.9603 17.5555 71.3675 20.0115 71.1002C22.4675 70.8329 24.8041 69.9012 26.7702 68.4053C28.7363 66.9094 30.2574 64.9058 31.17 62.61" stroke="#00008F" stroke-width="2" stroke-miterlimit="10"/>
<path d="M22.51 62.1299C21.7806 62.7633 20.909 63.2112 19.9693 63.4355C19.0297 63.6598 18.0497 63.6539 17.1128 63.4183C16.176 63.1827 15.3098 62.7244 14.588 62.0823C13.8663 61.4402 13.3102 60.6332 12.9671 59.7301C12.6241 58.827 12.5042 57.8545 12.6176 56.8951C12.731 55.9357 13.0744 55.0179 13.6186 54.2197C14.1628 53.4215 14.8916 52.7665 15.7433 52.3103C16.5949 51.8542 17.544 51.6105 18.51 51.5999C19.9822 51.5922 21.4059 52.126 22.51 53.0999M73.3 45.0599C74.6462 44.6199 76.0538 44.3971 77.47 44.3999C80.6556 44.3975 83.74 45.5183 86.1809 47.5654C88.6217 49.6124 90.2626 52.4545 90.815 55.5918C91.3675 58.7291 90.796 61.9608 89.2012 64.7184C87.6064 67.476 85.0904 69.5831 82.0956 70.6689C79.1008 71.7548 75.819 71.75 72.8274 70.6553C69.8358 69.5607 67.326 67.4462 65.7393 64.6839C64.1526 61.9216 63.5906 58.6883 64.1523 55.5526C64.7139 52.417 66.3632 49.5797 68.81 47.5399M29.56 52.9099L22.75 45.5199C22.5603 45.3601 22.4278 45.1429 22.3727 44.9011C22.3176 44.6593 22.3428 44.4061 22.4446 44.1799C22.5464 43.9537 22.7191 43.7669 22.9367 43.6478C23.1542 43.5287 23.4046 43.4838 23.65 43.5199L34 43.7599C35.0803 43.7506 36.1519 43.9544 37.1533 44.3597C38.1548 44.7649 39.0666 45.3635 39.8365 46.1214C40.6065 46.8793 41.2195 47.7815 41.6405 48.7764C42.0614 49.7714 42.2822 50.8395 42.29 51.9199V52.5499L29.56 52.9099ZM17.74 34.3499H33.24C35.2398 34.3499 37.1576 35.1442 38.5716 36.5583C39.9856 37.9723 40.78 39.8901 40.78 41.8899V42.7899C40.78 42.9437 40.7189 43.0912 40.6101 43.2C40.5014 43.3087 40.3538 43.3699 40.2 43.3699H14.59C14.041 43.3699 13.5145 43.1518 13.1263 42.7636C12.7381 42.3754 12.52 41.8489 12.52 41.2999V39.5699C12.52 38.1854 13.07 36.8577 14.0489 35.8788C15.0279 34.8998 16.3556 34.3499 17.74 34.3499Z" stroke="#00008F" stroke-width="2" stroke-miterlimit="10"/>
<path d="M78.3 53.9999C78.9981 54.1652 79.6372 54.5194 80.1475 55.0237C80.6577 55.5281 81.0194 56.163 81.1929 56.8591C81.3664 57.5552 81.345 58.2857 81.1311 58.9704C80.9172 59.6552 80.5191 60.2679 79.9802 60.7416C79.4413 61.2152 78.7826 61.5314 78.076 61.6556C77.3694 61.7798 76.6423 61.7073 75.9742 61.4459C75.3061 61.1845 74.7229 60.7443 74.2882 60.1735C73.8536 59.6028 73.5844 58.9235 73.51 58.2099C73.411 57.5219 73.5373 56.8202 73.87 56.2099L65.16 40.7999L53.81 59.7999C53.7434 59.8966 53.6541 59.9756 53.55 60.0299C53.4945 60.0723 53.4291 60.0999 53.36 60.1099H48.08C47.7603 61.0657 47.1412 61.893 46.3145 62.4694C45.4877 63.0458 44.4973 63.3405 43.49 63.3099L22.49 62.1099C21.8478 62.1086 21.2122 61.9808 20.6194 61.7339C20.0267 61.4869 19.4883 61.1256 19.0352 60.6706C18.582 60.2156 18.2229 59.6758 17.9784 59.082C17.7339 58.4882 17.6087 57.8521 17.61 57.2099C17.61 54.5999 19.8 53.0699 22.42 53.0699L44 52.4999C44.9154 52.5016 45.8068 52.7927 46.5467 53.3315C47.2867 53.8703 47.8374 54.6293 48.12 55.4999L50.72 55.5599L62.26 35.9099L57.78 27.9999L52.37 28.0599C52.1652 28.0639 51.9618 28.027 51.7714 27.9514C51.5811 27.8758 51.4078 27.763 51.2616 27.6196C51.1154 27.4762 50.9993 27.3051 50.92 27.1163C50.8408 26.9274 50.8 26.7247 50.8 26.5199V25.8499C50.8 25.4866 50.9443 25.1381 51.2013 24.8812C51.4582 24.6243 51.8066 24.4799 52.17 24.4799H61.17C61.24 24.4799 62.17 26.0699 63.66 28.4799C63.7366 27.3836 64.23 26.3582 65.039 25.6143C65.848 24.8704 66.9111 24.4645 68.01 24.4799H70.87V32.9099H68C67.3041 32.9056 66.6191 32.7377 66 32.4199C71.06 41.1299 78.3 53.9999 78.3 53.9999Z" stroke="#00008F" stroke-width="2" stroke-miterlimit="10"/>
</svg>

<svg width="96" height="96" viewBox="0 0 96 96" fill="none" xmlns="http://www.w3.org/2000/svg"><path d="M22.41 44.55l-.25-.07a13.759 13.759 0 00-3.59-.48 13.59 13.59 0 1012.6 18.61" stroke="#00008F" stroke-width="2" stroke-miterlimit="10"/><path d="M22.51 62.13a6 6 0 11-4-10.53 6 6 0 014 1.5m50.79-8.04a13.337 13.337 0 014.17-.66 13.54 13.54 0 11-8.66 3.14m-39.25 5.37l-6.81-7.39a1.14 1.14 0 01.9-2l10.35.24a8.217 8.217 0 017.64 5.016 8.22 8.22 0 01.65 3.144v.63l-12.73.36zM17.74 34.35h15.5a7.54 7.54 0 017.54 7.54v.9a.58.58 0 01-.58.58H14.59a2.07 2.07 0 01-2.07-2.07v-1.73a5.22 5.22 0 015.22-5.22z" stroke="#00008F" stroke-width="2" stroke-miterlimit="10"/><path d="M78.3 54a3.91 3.91 0 11-4.79 4.21 3.22 3.22 0 01.36-2L65.16 40.8l-11.35 19a.72.72 0 01-.26.23.41.41 0 01-.19.08h-5.28a4.69 4.69 0 01-4.59 3.2l-21-1.2a4.89 4.89 0 01-4.88-4.9c0-2.61 2.19-4.14 4.81-4.14L44 52.5a4.34 4.34 0 014.12 3l2.6.06 11.54-19.65L57.78 28l-5.41.06a1.54 1.54 0 01-1.57-1.54v-.67a1.37 1.37 0 011.37-1.37h9c.07 0 1 1.59 2.49 4a4.3 4.3 0 014.35-4h2.86v8.43H68a4.44 4.44 0 01-2-.49C71.06 41.13 78.3 54 78.3 54z" stroke="#00008F" stroke-width="2" stroke-miterlimit="10"/></svg>
